X:1
T:Donna da tuoi
T:Donna da tuoi
T:Giovanni Maria Artusi
T:Source : Canzonette a 4 voci---Libro Primo---Venetia---C.Vincenti---1598. Editor: André Vierendeels (20/02/14).
C:Giovanni Maria Artusi
%%score [ 1 2 3 4 ]
L:1/8
Q:1/4=120
M:4/4
K:C
V:1 treble nm="Canto 1" snm="C 1"
V:2 treble nm="Canto 2" snm="C 2"
V:3 treble nm="Alto" snm="A"
V:4 treble-8 nm="Tenor" snm="T"
V:1
 z4 d4- | d4 d4 | z2 d2 e3 e | e4 c4 | f2 ef g2 d2 | z2 d2 d4 | d4 A4 | B8 | z4 z2 g2- | %9
w: Don-|* na,|da tuoi bei|sguar- di,|es- con fa- cel- le|e dar-|di, Don-|na,|es-|
 g2 fe f2 f2 | z2 e4 Bc | d2 B2 A4 | B8 |[M:3/4] c2 c2 c2 | c4 A2 | e4 e2 |[M:4/4] z4 z2 G2 | %17
w: * con fa- cel- le,|es- con fa-|cel- l'e dar-|di,|e da be-|gl'oc- chi'A-|mo- re,|che|
 B3 c d2 cB | A2 G2 A4 | B2 B2 e3 d | c2 c2 d2 cB | A2 B2 A4 | B8 |[M:3/4] e2 e2 e2 | e4 d2 | %25
w: spar- ge dol- * *|* c'ar- do-|re, che spar- *|* ge dol- * *|* c'ar- do-|re,|e da be-|gl'oc- chi'A-|
 ^c4 c2 |[M:4/4] d4 B2 e2 | d3 e ^f2 g2 | ^f2 g4 f2 | g2 d2 c3 d | e2 dc B2 d2 | d8 | d8 |] %33
w: mo- re,|che spar- ge|dol- * * c'ar-|do- * *|re, che spar- ge|dol- * * * c'ar-|do-|re.|
V:2
 A8 | B8 | z4 z2 g2- | g2 fe f2 f2 | z2 e4 Bc | d2 B2 A4 | B4 z4 | d4 d4 | z2 d2 e3 e | e4 c4 | %10
w: Don-|na,|es-|* con fa- cel- le,|es- con fa-|cel- l'e dar-|di,|Don- na,|da tuoi bei|sguar- di,|
 f2 ef g2 d2 | z2 d2 d4 | d8 |[M:3/4] e2 e2 e2 | e4 d2 | ^c4 c2 |[M:4/4] d4 B2 e2 | d3 e f2 g2 | %18
w: es- con fa- cel- le,|e dar-|di,|e da be-|gl'oc- chi'A-|mo- re,|che spar- ge|dol- * * c'ar-|
 ^f2 g4 f2 | g2 d2 c3 d | e2 dc B2 d2 | d8 | d8 |[M:3/4] c2 c2 c2 | c4 A2 | e4 e2 | %26
w: do- * *|re, che spar- ge|dol- * * * c'ar-|do-|re,|e da be-|gl'oc- chi'A-|mo- re,|
[M:4/4] z4 z2 G2 | B3 c d2 cB | A2 G2 A4 | B2 B2 e3 d | c2 c2 d2 cB | A2 B2 A4 | B8 |] %33
w: che|spar- ge dol- * *|* c'ar- do-|re, che spar- ge|dol- c'ar- do- * *||re.|
V:3
 ^F8 | G4 z2 B2 | A2 B2 c4 | G4 z2 A2- | A2 G2 G2 G2- | G2 G2 ^F4 | G4 ^F4 | G4 z2 B2 | A2 B2 c4 | %9
w: Don-|na, da|tuoi bei sgaur-|di, es-|* con fa- cel-|* le dar-|di, Don-|na, da|tuoi bei sguar-|
 G4 z2 A2- | A2 G2 G2 G2- | G2 G2 ^F4 | G8 |[M:3/4] G2 G2 G2 | G4 ^F2 | A4 A2 |[M:4/4] z2 D2 E3 F | %17
w: di, es-|* con fa- cel-|* l'e dar-|di,|e da be-|gl'oc- chi'A-|mo- re,|che spar- ge|
 G2 FE D2 G,2 | D8 | G,2 G2 E2 A2 | G6 G2 | ^F2 G4 F2 | G8 |[M:3/4] G2 G2 G2 | G4 ^F2 | A4 A2 | %26
w: dol- * * * c'ar-|do-|re, che spar- ge|dol- c'ar-|do- * *|re,|e da be-|gl'oc- chi'A-|mo- re,|
[M:4/4] z2 D2 E3 F | G2 FE D2 G,2 | D8 | G,2 G2 E2 A2 | G6 G2 | ^F2 G4 F2 | G8 |] %33
w: che spar- ge|dol- * * * c'ar-|do-|re, che spar- ge|dol- c'ar-|do- * *|re.|
V:4
 d8 | G4 z2 g2 | ^f2 g2 c4 | c4 f4- | f2 cd e2 g2 | d8 | G4 d4 | G4 z2 g2 | ^f2 g2 c4 | c4 f4- | %10
w: Don-|na, da|tuoi bei sguar-|di, es-|* con fa- cel- l'e|dar-|di, Don-|na, da|tuoi bei sguar-|di, es-|
 f2 cd e2 g2 | d8 | G8 |[M:3/4] c2 c2 c2 | c4 d2 | A4 A2 |[M:4/4] z8 | z8 | z8 | z2 G2 A3 B | %20
w: * con fa- cel- l'e|dar-|di,|e da ge-|gl'oc- chi'A-|mo- re,||||che apar- ge|
 c2 BA GA Bc | d2 G2 d4 | G8 |[M:3/4] c2 c2 c2 | c4 d2 | A4 A2 |[M:4/4] z8 | z8 | z8 | z2 G2 A3 B | %30
w: dol- * * * * * *|* c'ar- do-|re,|e da be-|gl'oc- chi'A-|mo- re,||||che spar- ge|
 c2 BA GA Bc | d2 G2 d4 | G8 |] %33
w: do- * * * * * *|* c'ar- do-|re.|

